public/images/logos/ergosign.svg

<svg fill="none" height="36" viewBox="0 0 256 36" width="256" xmlns="http://www.w3.org/2000/svg"><path clip-rule="evenodd" d="m1.74121 5.46111 3.1347-3.13469 12.53879 12.53878 3.1347 3.1347-3.1347 3.1347-12.53879 12.5388-3.1347-3.1347 12.53879-12.5388zm20.37689 10.97139-3.1347-3.1347 10.9714-10.97138 3.1347 3.13469zm7.8367 17.2409-10.9714-10.9715 3.1347-3.1347 10.9714 10.9715zm144.3682 0-.082-.0003c6.386-.0345 10.009-3.68 10.009-8.5331 0-4.5279-2.09-6.6177-8.708-9.0558-6.095-2.2639-7.314-3.6571-7.314-6.26935 0-2.26394 1.742-4.35374 5.921-4.35374 2.767-.09993 5.46.90222 7.489 2.78639l2.089-2.61224c-2.438-2.0898-5.05-3.30884-9.23-3.30884-5.572 0-9.404 2.96054-9.404 7.83678 0 4.3537 2.09 6.4435 8.708 8.7074 5.573 2.0898 7.314 3.6572 7.314 6.4436 0 3.3088-2.612 5.2245-6.618 5.2245-1.51-.0531-2.994-.4034-4.369-1.031-1.375-.6275-2.612-1.5199-3.641-2.6262l-2.264 2.6123c2.248 2.4213 6.042 4.1556 10.018 4.1793l-.092.0003zm20.725-.5225h-3.309v-30.30203h3.309zm6.966-15.151c0 8.8816 4.876 15.6735 12.19 15.6735l-.174-.1742c6.443 0 11.32-4.1796 11.32-12.5388v-2.9605h-8.708v3.483h5.399c0 5.9211-2.787 9.0558-7.837 9.0558s-9.056-5.2245-9.056-12.5388 3.832-12.53879 9.056-12.53879c3.309 0 5.05 1.0449 6.966 3.83129l2.961-2.08979c-2.439-3.30885-5.573-4.87619-9.753-4.87619-7.314 0-12.364 6.61768-12.364 15.67348zm35.352-5.747 13.235 20.898h.174 2.961v-30.30203h-3.135v24.72923l-2.264-3.8313-13.061-21.07208h-3.309v30.65038h3.135v-24.7293zm-183.3797-9.40403v30.30203h18.9823v-2.9605h-15.6734v-11.6681h8.7075v-3.1347h-8.7075v-9.57819h14.9768v-2.96054zm51.8967 15.15103c0 8.8816 4.702 15.6735 12.19 15.6735l.175-.1742c6.443 0 11.145-4.1796 11.145-12.5388v-2.9605h-8.707v3.483h5.572c0 5.9211-2.786 9.0558-8.01 9.0558-5.051 0-8.882-5.2245-8.882-12.5388s3.831-12.53879 9.056-12.53879c3.134 0 5.05 1.0449 6.966 3.83129l2.438-2.08979c-2.264-3.30885-5.399-4.87619-9.753-4.87619-7.14 0-12.19 6.61768-12.19 15.67348zm31.869 0c0-7.6626 3.832-12.53879 9.056-12.53879 5.399 0 9.404 4.87619 9.404 12.53879s-4.005 12.5388-9.23 12.5388c-5.224 0-9.23-4.8762-9.23-12.5388zm-3.309 0c0 9.2299 4.877 15.6735 12.365 15.6735h.174c7.489 0 12.713-6.6177 12.713-15.6735 0-9.22995-5.05-15.67348-12.713-15.67348-7.488 0-12.539 6.61768-12.539 15.67348zm-55.0308 15.151h3.3088v-27.34149h8.7075c4.0055 0 6.0952 1.7415 6.0952 5.74689 0 3.8313-2.0897 5.747-6.6176 5.747h-2.264l5.747 11.3197 2.2639 4.5279h3.831l-6.6174-13.2354c4.3537-.8707 7.1404-3.8313 7.1404-8.3592 0-6.09519-4.1799-8.70743-9.4043-8.70743h-12.1905z" fill="#111" fill-rule="evenodd"/></svg>

<svg width="256" height="36" viewBox="0 0 256 36" fill="none" xmlns="http://www.w3.org/2000/svg">
<path fill-rule="evenodd" clip-rule="evenodd" d="M1.74121 5.46111L4.87591 2.32642L17.4147 14.8652L20.5494 17.9999L17.4147 21.1346L4.87591 33.6734L1.74121 30.5387L14.28 17.9999L1.74121 5.46111ZM22.1181 16.4325L18.9834 13.2978L29.9548 2.32642L33.0895 5.46111L22.1181 16.4325ZM29.9548 33.6734L18.9834 22.7019L22.1181 19.5672L33.0895 30.5387L29.9548 33.6734ZM174.323 33.6734L174.241 33.6731C180.627 33.6386 184.25 29.9931 184.25 25.14C184.25 20.6121 182.16 18.5223 175.542 16.0842C169.447 13.8203 168.228 12.4271 168.228 9.81485C168.228 7.55091 169.97 5.46111 174.149 5.46111C176.916 5.36118 179.609 6.36333 181.638 8.2475L183.727 5.63526C181.289 3.54546 178.677 2.32642 174.497 2.32642C168.925 2.32642 165.093 5.28696 165.093 10.1632C165.093 14.5169 167.183 16.6067 173.801 18.8706C179.374 20.9604 181.115 22.5278 181.115 25.3142C181.115 28.623 178.503 30.5387 174.497 30.5387C172.987 30.4856 171.503 30.1353 170.128 29.5077C168.753 28.8802 167.516 27.9878 166.487 26.8815L164.223 29.4938C166.471 31.9151 170.265 33.6494 174.241 33.6731L174.149 33.6734H174.323ZM195.048 33.1509H191.739V2.84887H195.048V33.1509ZM202.014 17.9999C202.014 26.8815 206.89 33.6734 214.204 33.6734L214.03 33.4992C220.473 33.4992 225.35 29.3196 225.35 20.9604V17.9999H216.642V21.4829H222.041C222.041 27.404 219.254 30.5387 214.204 30.5387C209.154 30.5387 205.148 25.3142 205.148 17.9999C205.148 10.6856 208.98 5.46111 214.204 5.46111C217.513 5.46111 219.254 6.50601 221.17 9.2924L224.131 7.20261C221.692 3.89376 218.558 2.32642 214.378 2.32642C207.064 2.32642 202.014 8.9441 202.014 17.9999ZM237.366 12.2529L250.601 33.1509H250.775H253.736V2.84887H250.601V27.5781L248.337 23.7468L235.276 2.67472H231.967V33.3251H235.102V8.5958L237.366 12.2529ZM53.9863 2.84887V33.1509H72.9686V30.1904H57.2952V18.5223H66.0027V15.3876H57.2952V5.80941H72.272V2.84887H53.9863ZM105.883 17.9999C105.883 26.8815 110.585 33.6734 118.073 33.6734L118.248 33.4992C124.691 33.4992 129.393 29.3196 129.393 20.9604V17.9999H120.686V21.4829H126.258C126.258 27.404 123.472 30.5387 118.248 30.5387C113.197 30.5387 109.366 25.3142 109.366 17.9999C109.366 10.6856 113.197 5.46111 118.422 5.46111C121.556 5.46111 123.472 6.50601 125.388 9.2924L127.826 7.20261C125.562 3.89376 122.427 2.32642 118.073 2.32642C110.933 2.32642 105.883 8.9441 105.883 17.9999ZM137.752 17.9999C137.752 10.3373 141.584 5.46111 146.808 5.46111C152.207 5.46111 156.212 10.3373 156.212 17.9999C156.212 25.6625 152.207 30.5387 146.982 30.5387C141.758 30.5387 137.752 25.6625 137.752 17.9999ZM134.443 17.9999C134.443 27.2298 139.32 33.6734 146.808 33.6734H146.982C154.471 33.6734 159.695 27.0557 159.695 17.9999C159.695 8.76995 154.645 2.32642 146.982 2.32642C139.494 2.32642 134.443 8.9441 134.443 17.9999ZM79.4122 33.1509H82.721V5.80941H91.4285C95.434 5.80941 97.5237 7.55091 97.5237 11.5563C97.5237 15.3876 95.434 17.3033 90.9061 17.3033H88.6421L94.3891 28.623L96.653 33.1509H100.484L93.8666 19.9155C98.2203 19.0448 101.007 16.0842 101.007 11.5563C101.007 5.46111 96.8271 2.84887 91.6027 2.84887H79.4122V33.1509Z" fill="#111111"/>
</svg>
